vendor/shopware/storefront/Resources/app/storefront/dist/assets/icon/solid/circle-small.svg

<svg xmlns="http://www.w3.org/2000/svg" width="16" height="16" viewBox="0 0 16 16">
  <path fill="#758CA3" fill-rule="evenodd" d="M8,12 C5.790861,12 4,10.209139 4,8 C4,5.790861 5.790861,4 8,4 C10.209139,4 12,5.790861 12,8 C12,10.209139 10.209139,12 8,12 Z M8,10 C9.1045695,10 10,9.1045695 10,8 C10,6.8954305 9.1045695,6 8,6 C6.8954305,6 6,6.8954305 6,8 C6,9.1045695 6.8954305,10 8,10 Z"/>
</svg>

<svg xmlns="http://www.w3.org/2000/svg" width="16" height="16" viewBox="0 0 16 16"><path fill="#758CA3" fill-rule="evenodd" d="M8 12c-2.2091 0-4-1.7909-4-4 0-2.2091 1.7909-4 4-4 2.2091 0 4 1.7909 4 4 0 2.2091-1.7909 4-4 4zm0-2c1.1046 0 2-.8954 2-2s-.8954-2-2-2-2 .8954-2 2 .8954 2 2 2z"/></svg>
